src/Assets/icons/pay-u.svg

<svg class="svg-icon" viewBox="0 -9 58 58" fill="currentColor" xmlns="http://www.w3.org/2000/svg">
<rect x="0.5" y="0.5" width="57" height="39" rx="3.5" fill="white" stroke="#F3F3F3"/>
<path d="M53.6819 12.2421H51.4655C51.2229 12.2421 51.027 12.0463 51.027 11.8037V9.55953C51.027 9.31692 51.2229 9.12109 51.4655 9.12109H53.6819C53.9245 9.12109 54.1204 9.31692 54.1204 9.55953V11.8037C54.1204 12.0463 53.9228 12.2421 53.6819 12.2421Z" fill="#BCCF00"/>
<path d="M50.7272 9.12113H49.2213C49.0567 9.12113 48.9232 8.98769 48.9232 8.82306V7.29807C48.9232 7.13344 49.0567 7 49.2213 7H50.7272C50.8918 7 51.0253 7.13344 51.0253 7.29807V8.82306C51.0253 8.98769 50.8918 9.12113 50.7272 9.12113Z" fill="#BCCF00"/>
<path fill-rule="evenodd" clip-rule="evenodd" d="M6.49198 13.2421H9.717C13.0373 13.2421 14.5831 14.7133 14.5814 17.869C14.5814 21.0265 13.0356 22.496 9.71527 22.496H5.97556V26.8024C5.97556 27.4678 5.76241 27.681 5.09696 27.681H4.87861C4.21315 27.681 4 27.4678 4 26.8024V15.734C4 14.0098 4.76943 13.2421 6.49198 13.2421ZM9.71527 20.6504C12.1449 20.6504 12.6058 19.673 12.6058 17.869C12.6058 15.5608 11.547 15.1102 9.717 15.1102H6.86283C6.21644 15.1102 5.97729 15.3511 5.97729 15.9957V20.6504H9.71527ZM18.737 16.4168C17.4598 16.4168 16.6575 16.5763 16.3542 16.6386C15.817 16.7548 15.5917 16.9038 15.5917 17.5155V17.6905C15.5917 17.9297 15.6264 18.0961 15.7026 18.2122C15.791 18.3491 15.9348 18.4167 16.1272 18.4167C16.2208 18.4167 16.3299 18.4011 16.4599 18.3681C16.7666 18.2919 17.7492 18.1324 18.8219 18.1324C20.7507 18.1324 21.5374 18.6662 21.5374 19.9763V21.1443H19.1044C15.9781 21.1443 14.5207 22.1997 14.5207 24.4629C14.5207 26.6603 16.0249 27.8699 18.7543 27.8699C21.9984 27.8699 23.4454 26.766 23.4454 24.2896V19.9763C23.4506 17.5796 21.9083 16.4168 18.737 16.4168ZM21.5392 24.2238V22.7057H19.1286C17.1912 22.7057 16.4356 23.1979 16.4356 24.4629C16.4356 25.6171 17.1877 26.1768 18.737 26.1768C21.0799 26.1768 21.5392 25.4611 21.5392 24.2238ZM34.1862 17.6247L31.6804 27.6481C30.9456 30.5872 29.691 31.8487 27.348 32.0012C27.2874 32.0064 27.2302 32.0099 27.1765 32.0099C26.6722 32.0099 26.5127 31.7309 26.4192 31.2821L26.3758 31.088C26.3325 30.8835 26.3065 30.653 26.4261 30.4936C26.5422 30.3393 26.7484 30.2943 27.0673 30.2666C28.6356 30.1054 29.1676 29.3793 29.691 27.7347C29.4432 27.8179 29.1451 27.863 28.8245 27.863C27.1002 27.863 26.6392 26.662 26.2511 25.2115L24.1819 17.6299C24.1126 17.3734 24.0676 17.11 24.201 16.935C24.3344 16.76 24.5961 16.7357 24.8595 16.7357H25.0345C25.6861 16.7357 25.9357 16.928 26.1055 17.5571L28.1538 25.0729C28.419 26.0104 28.6841 26.1699 29.3496 26.1699C29.892 26.1699 30.2091 26.0018 30.4344 25.0781L32.2419 17.5623C32.3857 16.9384 32.6404 16.7374 33.292 16.7374H33.4879C33.7495 16.7374 34.0095 16.7617 34.1464 16.935C34.2816 17.1048 34.2452 17.3665 34.1862 17.6247ZM48.918 17.5866V14.696C48.918 13.4673 48.4172 13.2455 47.0672 13.2455H46.6427C45.2944 13.2455 44.7936 13.4691 44.7936 14.696V17.571C44.7919 17.5779 44.7919 17.5831 44.7919 17.59V18.2191C44.7919 18.2293 44.7915 18.2395 44.791 18.2499C44.7906 18.2607 44.7902 18.2717 44.7902 18.2832V22.2967C44.7902 22.7871 44.6966 23.1771 44.5008 23.4803C44.1334 24.047 43.4055 24.3035 42.241 24.3052C41.0782 24.3035 40.3503 24.0453 39.983 23.4803C39.7889 23.1771 39.6936 22.7854 39.6936 22.295V18.2815C39.6936 18.2702 39.6931 18.2598 39.6927 18.2494C39.6922 18.239 39.6918 18.2286 39.6918 18.2174V17.5883C39.6918 17.5848 39.6914 17.5818 39.6909 17.5788C39.6905 17.5757 39.6901 17.5727 39.6901 17.5692V14.696C39.6901 13.4673 39.1893 13.2455 37.841 13.2455H37.4165C36.0682 13.2455 35.5674 13.4691 35.5674 14.696V17.5866V20.6279V22.295C35.5674 23.5167 35.8447 24.553 36.3767 25.3866C37.4061 27.0034 39.3989 27.8647 42.2323 27.8647H42.2427H42.2531C45.0865 27.8647 47.0794 27.0034 48.1088 25.3866C48.6425 24.553 48.918 23.5167 48.918 22.295V20.6279V17.5866Z" fill="url(#paint0_linear_545_4238)"/>
<path d="M50.4344 16.441L47.4485 16.4393C47.1227 16.4393 46.8593 16.1759 46.8593 15.8501L46.861 12.8279C46.861 12.5021 47.1245 12.2386 47.4502 12.2386L50.4361 12.2404C50.7619 12.2404 51.0253 12.5038 51.0253 12.8296L51.0236 15.8518C51.0253 16.1776 50.7602 16.441 50.4344 16.441Z" fill="#BCCF00"/>
<defs>
<linearGradient id="paint0_linear_545_4238" x1="3.61235" y1="17.203" x2="3.61235" y2="36.2951" gradientUnits="userSpaceOnUse">
<stop stop-color="#BCCF00"/>
<stop offset="1" stop-color="#438F29"/>
</linearGradient>
</defs>
</svg>

<svg class="svg-icon" viewBox="0 -9 58 58" fill="currentColor" xmlns="http://www.w3.org/2000/svg"><rect x=".5" y=".5" width="57" height="39" rx="3.5" fill="#fff" stroke="#F3F3F3"/><path d="M53.682 12.242h-2.217a.438.438 0 0 1-.438-.438V9.56c0-.243.196-.439.438-.439h2.217c.242 0 .438.196.438.439v2.244a.439.439 0 0 1-.438.438Zm-2.955-3.121h-1.506a.298.298 0 0 1-.298-.298V7.298c0-.165.134-.298.298-.298h1.506c.165 0 .298.133.298.298v1.525a.298.298 0 0 1-.298.298Z" fill="#BCCF00"/><path fill-rule="evenodd" clip-rule="evenodd" d="M6.492 13.242h3.225c3.32 0 4.866 1.471 4.864 4.627 0 3.157-1.545 4.627-4.866 4.627h-3.74v4.306c0 .666-.213.879-.878.879h-.218c-.666 0-.879-.213-.879-.879V15.734c0-1.724.77-2.492 2.492-2.492Zm3.223 7.408c2.43 0 2.89-.977 2.89-2.781 0-2.308-1.058-2.759-2.888-2.759H6.863c-.647 0-.886.241-.886.886v4.654h3.738Zm9.022-4.233c-1.277 0-2.08.16-2.383.222-.537.116-.762.265-.762.877v.175c0 .239.034.405.11.521.089.137.233.205.425.205.094 0 .203-.016.333-.049.307-.076 1.29-.236 2.362-.236 1.929 0 2.715.534 2.715 1.844v1.168h-2.433c-3.126 0-4.583 1.056-4.583 3.319 0 2.197 1.504 3.407 4.233 3.407 3.244 0 4.691-1.104 4.691-3.58v-4.314c.006-2.396-1.537-3.56-4.708-3.56Zm2.802 7.807v-1.518h-2.41c-1.938 0-2.693.492-2.693 1.757 0 1.154.752 1.714 2.301 1.714 2.343 0 2.802-.716 2.802-1.953Zm12.647-6.6L31.68 27.649c-.734 2.94-1.989 4.2-4.332 4.353-.06.005-.118.009-.171.009-.505 0-.664-.28-.758-.728l-.043-.194c-.044-.204-.07-.435.05-.594.116-.155.322-.2.641-.227 1.569-.162 2.1-.888 2.624-2.532a2.761 2.761 0 0 1-.866.128c-1.725 0-2.186-1.201-2.574-2.651l-2.07-7.582c-.068-.257-.113-.52.02-.695.133-.175.395-.2.659-.2h.175c.651 0 .9.193 1.07.822l2.049 7.516c.265.937.53 1.097 1.196 1.097.542 0 .86-.168 1.084-1.092l1.808-7.516c.144-.624.398-.825 1.05-.825h.196c.261 0 .522.025.658.198.136.17.1.431.04.69Zm14.732-.037v-2.891c0-1.229-.5-1.45-1.85-1.45h-.425c-1.349 0-1.85.223-1.85 1.45v2.875l-.001.019v.63a.64.64 0 0 1-.002.063v4.014c0 .49-.093.88-.29 1.183-.367.567-1.094.823-2.259.825-1.163-.002-1.89-.26-2.258-.825-.194-.303-.29-.695-.29-1.185v-4.046l-.001-.032v-.629l-.001-.01v-2.882c0-1.229-.502-1.45-1.85-1.45h-.425c-1.348 0-1.849.223-1.849 1.45v7.599c0 1.222.278 2.258.81 3.092 1.03 1.616 3.022 2.478 5.855 2.478h.021c2.834 0 4.826-.862 5.856-2.478.533-.834.809-1.87.809-3.092v-4.708Z" fill="url(#a)"/><path d="m50.434 16.441-2.985-.002a.589.589 0 0 1-.59-.589l.002-3.022a.59.59 0 0 1 .59-.59l2.985.002a.59.59 0 0 1 .59.59l-.002 3.022a.588.588 0 0 1-.59.589Z" fill="#BCCF00"/><defs><linearGradient id="a" x1="3.612" y1="17.203" x2="3.612" y2="36.295" gradientUnits="userSpaceOnUse"><stop stop-color="#BCCF00"/><stop offset="1" stop-color="#438F29"/></linearGradient></defs></svg>
